!!!OTL: Die Sterne.
!!!OTL-incipit: VIEL TAUSEND STERNE
!!!ARE: Europa, Mitteleuropa, Deutschland
!!!SCT: F0973
!!!TXL: @@DE
!!!YEM: Copyright 1995, estate of Helmut Schaffrath.
**kern	**text
*ICvox	*
*M6/8	*
*k[]	*
*C:	*
!LO:TX::t=Mäßig.	!
{8g	Viel
=1	=1
4ee/	tauſend
8ee/	.
4dd/	Ster-
8dd/	-ne
=2	=2
4.cc/	prangen
4g}	.
{8g	am
=3	=3
4cc/	Himmel
8cc/	.
8.dd/L	ſtill
16ccJ	.
8dd/	und
=4	=4
[4.ee/	ſchön,
8ee/]	.
8r}	.
{8g	und
=5	=5
4ee/	we-
8ee/	-cken
4dd/	mein
8dd/	Ver-
=6	=6
(4.cc/	-lan-
8ff/)	.
8ee/}	-gen
{8dd/	nach
=7	=7
4cc/	je-
8cc/	-nen
8cc/L	ſel'-
8ddJ	.
8b/	-gen
=8	=8
[4.cc/	Höh'n.
8cc/]	.
8r}	.
{8g	O
=9	=9
4dd/	e-
8b/	-wig
4dd/	ſchö-
8b/	-ne
=10	=10
(4ee/	Ster-
8dd/)	.
4cc/}	-ne,
{8cc/	in
=11	=11
4ff/	e-
8ee/	-wig
4dd/	gleichem
8cc/	.
=12	=12
[4.b/	Lauf,
8b/]	.
8r}	.
{8g	wie
=13	=13
4ee/	blick'
8ee/	ich
4dd/	ſtets
8dd/	ſo
=14	=14
(4.cc/	ger-
8ff/)	.
8ee/}	-ne
{8dd/	ʒu
=15	=15
4cc/	eu-
8cc/	-rem
8cc/L	Glanʒ
8dd/J	.
8b/	hin-
=16	=16
[4.cc/	-auf!
8cc/]	.
8r}	.
{8g	O
=17	=17
4dd/	e-
8b/	-wig
4dd/	ſchö-
8b/	-ne
=18	=18
(4ee/	Ster-
8dd/)	.
4cc/}	-ne,
{8cc/	in
=19	=19
4ff/	e-
8ee/	-wig
4dd/	gleichem
8cc/	.
=20	=20
[4.b/	Lauf,
8b/]	.
8r}	.
{8g	wie
=21	=21
4ee/	blick'
8ee/	ich
4dd/	ſtets
8dd/	ſo
=22	=22
(4.cc/	ger-
8ff/)	.
8ee/}	-ne
{8dd/	ʒu
=23	=23
4cc/	eu-
8cc/	-rem
8cc/L	Glanʒ
8dd/J	.
8b/	hin-
=24	=24
[4.cc/	-auf!
8cc/]	.
8r}	.
{8g	wie
=25	=25
8gL	blick'
8aJ	.
8b/	ich
8cc/L	ſtets
8ddJ	.
8ee/	ſo
=26	=26
4.ff/	ger-
4ee/}	-ne
{16ff/L	ʒu
16ddJ	.
=27	=27
4cc/	eu-
8cc/	-rem
8cc/L	Glanʒ
8ddJ	.
8b/	hin-
=28	=28
[4.cc/	-auf!
8cc/]	.
8r}	.
{8g	wie
=29	=29
8gL	blick'
8aJ	.
8b/	ich
8cc/L	ſtets
8ddJ	.
8ee/	ſo
=30	=30
4.ff/	ger-
8ff/L	-ne
8ggJ}	.
{8aa/	ʒu
=31	=31
4gg/	eu-
8cc/	rem
4ee/	Glanʒ
8dd/	hin-
=32	=32
[4.ee/	-auf!
8ee/]	.
8r}	.
==	==
!!!AGN: Natur - Lied, Sterne
!!!ONB: ESAC (Essen Associative Code) Database: FINK
!!!AMT: compound duple
!!!AIN: vox
!!!EED: Helmut Schaffrath
!!!EEV: 1.0
!!Text: J. A. Eberhard
!!!GTL: Lieder um Preise der Natur.
!!!source: Musikalischer Hausschatz der Deutschen. Eine Sammlung von über 1000 Liedern und Gesängen mit Singstimmen und Klavierbegleitung. Leipzig, Litterarisches Verlags-Haus.
!!!page: 734
!!!ENC: Anna Maria Matuszewska
!!!EEV: 2025/03/20
*-	*-
